src/assets/duotone/Driver2.svg

<?xml version="1.0" encoding="UTF-8"?>
<svg width="24" height="24" viewBox="0 0 24 24" xmlns="http://www.w3.org/2000/svg">
 <path d="m16.19 2h-8.37c-3.64 0-5.81 2.17-5.81 5.81v8.37c0 3.64 2.17 5.81 5.81 5.81h8.37c3.64 0 5.81-2.17 5.81-5.81v-8.37c0-3.64-2.17-5.81-5.81-5.81z" opacity=".4"/>
 <path d="m6 9c-0.41 0-0.75-0.34-0.75-0.75v-2c0-0.41 0.34-0.75 0.75-0.75s0.75 0.34 0.75 0.75v2c0 0.41-0.34 0.75-0.75 0.75z"/>
 <path d="m10 9c-0.41 0-0.75-0.34-0.75-0.75v-2c0-0.41 0.34-0.75 0.75-0.75s0.75 0.34 0.75 0.75v2c0 0.41-0.34 0.75-0.75 0.75z"/>
 <path d="m6 18.75c-0.41 0-0.75-0.34-0.75-0.75v-2c0-0.41 0.34-0.75 0.75-0.75s0.75 0.34 0.75 0.75v2c0 0.41-0.34 0.75-0.75 0.75z"/>
 <path d="m10 18.75c-0.41 0-0.75-0.34-0.75-0.75v-2c0-0.41 0.34-0.75 0.75-0.75s0.75 0.34 0.75 0.75v2c0 0.41-0.34 0.75-0.75 0.75z"/>
 <path d="m18 8h-4c-0.41 0-0.75-0.34-0.75-0.75s0.34-0.75 0.75-0.75h4c0.41 0 0.75 0.34 0.75 0.75s-0.34 0.75-0.75 0.75z"/>
 <path d="m18 17.75h-4c-0.41 0-0.75-0.34-0.75-0.75s0.34-0.75 0.75-0.75h4c0.41 0 0.75 0.34 0.75 0.75s-0.34 0.75-0.75 0.75z"/>
 <path d="m22 11.25h-20v1.5h20v-1.5z"/>
</svg>

<svg width="24" height="24" viewBox="0 0 24 24"  xmlns="http://www.w3.org/2000/svg">
<path opacity="0.4" d="M16.1898 2H7.81976C4.17976 2 2.00977 4.17 2.00977 7.81V16.18C2.00977 19.82 4.17976 21.99 7.81976 21.99H16.1898C19.8298 21.99 21.9998 19.82 21.9998 16.18V7.81C21.9998 4.17 19.8298 2 16.1898 2Z" />
<path d="M6 9C5.59 9 5.25 8.66 5.25 8.25V6.25C5.25 5.84 5.59 5.5 6 5.5C6.41 5.5 6.75 5.84 6.75 6.25V8.25C6.75 8.66 6.41 9 6 9Z" />
<path d="M10 9C9.59 9 9.25 8.66 9.25 8.25V6.25C9.25 5.84 9.59 5.5 10 5.5C10.41 5.5 10.75 5.84 10.75 6.25V8.25C10.75 8.66 10.41 9 10 9Z" />
<path d="M6 18.75C5.59 18.75 5.25 18.41 5.25 18V16C5.25 15.59 5.59 15.25 6 15.25C6.41 15.25 6.75 15.59 6.75 16V18C6.75 18.41 6.41 18.75 6 18.75Z" />
<path d="M10 18.75C9.59 18.75 9.25 18.41 9.25 18V16C9.25 15.59 9.59 15.25 10 15.25C10.41 15.25 10.75 15.59 10.75 16V18C10.75 18.41 10.41 18.75 10 18.75Z" />
<path d="M18 8H14C13.59 8 13.25 7.66 13.25 7.25C13.25 6.84 13.59 6.5 14 6.5H18C18.41 6.5 18.75 6.84 18.75 7.25C18.75 7.66 18.41 8 18 8Z" />
<path d="M18 17.75H14C13.59 17.75 13.25 17.41 13.25 17C13.25 16.59 13.59 16.25 14 16.25H18C18.41 16.25 18.75 16.59 18.75 17C18.75 17.41 18.41 17.75 18 17.75Z" />
<path d="M22 11.25H2V12.75H22V11.25Z" />
</svg>
